packages/katcn/src/icons/svg/hat.svg

<svg width="24" height="25" viewBox="0 0 24 25" fill="none" xmlns="http://www.w3.org/2000/svg">
<path d="M22 7.94485L13.8 3.65676C12.7 3.05842 11.3 3.05842 10.2 3.65676L2 7.94485C1.4 8.24402 1 8.94208 1 9.64014C1 10.3382 1.4 10.9365 2 11.3354L4.4 12.6318V16.1221C4.4 17.2191 5 18.2163 6 18.7149L10.3 20.9088C10.8 21.1083 11.4 21.208 12 21.208C12.6 21.208 13.2 21.1083 13.7 20.8091L18 18.6152C19 18.1166 19.6 17.1194 19.6 16.0224V14.9255C19.6 14.3271 19.2 13.9282 18.6 13.9282C18 13.9282 17.6 14.3271 17.6 14.9255V16.0224C17.6 16.3216 17.4 16.7205 17.1 16.8202L12.8 19.0141C12.3 19.3133 11.7 19.3133 11.2 19.0141L6.9 16.8202C6.6 16.6208 6.4 16.3216 6.4 16.0224V13.6291L10.2 15.6235C10.8 15.9227 11.4 16.0224 12 16.0224C12.6 16.0224 13.2 15.9227 13.8 15.6235L22 11.3354C22.6 11.0363 23 10.3382 23 9.64014C23 8.94208 22.6 8.34374 22 7.94485ZM12.9 13.8285C12.4 14.1277 11.7 14.1277 11.1 13.8285L3.1 9.64014L11.1 5.45178C11.7 5.15261 12.3 5.15261 12.9 5.45178L20.9 9.64014L12.9 13.8285Z" fill="black"/>
</svg>

<svg xmlns="http://www.w3.org/2000/svg" fill="none" viewBox="0 0 24 25"><path fill="#000" d="m22 7.945-8.2-4.288a3.83 3.83 0 0 0-3.6 0L2 7.945c-.6.299-1 .997-1 1.695s.4 1.297 1 1.695l2.4 1.297v3.49c0 1.097.6 2.094 1.6 2.593l4.3 2.194c.5.2 1.1.299 1.7.299s1.2-.1 1.7-.399l4.3-2.194c1-.498 1.6-1.496 1.6-2.593v-1.096c0-.599-.4-.998-1-.998s-1 .4-1 .997v1.097c0 .3-.2.699-.5.798l-4.3 2.194c-.5.3-1.1.3-1.6 0L6.9 16.82c-.3-.2-.5-.498-.5-.798V13.63l3.8 1.995c.6.299 1.2.398 1.8.398s1.2-.1 1.8-.398l8.2-4.289c.6-.299 1-.997 1-1.695s-.4-1.296-1-1.695m-9.1 5.884c-.5.299-1.2.299-1.8 0l-8-4.189 8-4.188q.9-.45 1.8 0l8 4.188z"/></svg>
